public/images/home/star.svg

<svg width="12" height="12" viewBox="0 0 12 12" fill="none" xmlns="http://www.w3.org/2000/svg">
<path d="M5.23879 0.84154C5.47879 0.10474 6.52119 0.10474 6.76039 0.84154L7.61639 3.47514C7.66869 3.63553 7.77035 3.77528 7.90685 3.87442C8.04334 3.97356 8.20769 4.02702 8.37639 4.02714H11.146C11.9212 4.02714 12.2428 5.01914 11.6164 5.47514L9.37639 7.10234C9.23961 7.20156 9.13777 7.34155 9.08546 7.50222C9.03314 7.6629 9.03305 7.83601 9.08519 7.99674L9.94119 10.6303C10.1812 11.3671 9.33719 11.9807 8.70919 11.5247L6.46919 9.89754C6.33255 9.79834 6.16804 9.74492 5.99919 9.74492C5.83034 9.74492 5.66582 9.79834 5.52919 9.89754L3.28919 11.5247C2.66199 11.9807 1.81879 11.3671 2.05799 10.6303L2.91399 7.99674C2.96613 7.83601 2.96603 7.6629 2.91372 7.50222C2.86141 7.34155 2.75956 7.20156 2.62279 7.10234L0.383589 5.47594C-0.242811 5.01994 0.0795887 4.02794 0.853989 4.02794H3.62279C3.79163 4.02798 3.95615 3.97461 4.09281 3.87546C4.22947 3.77631 4.33125 3.63646 4.38359 3.47594L5.23959 0.84234L5.23879 0.84154Z" fill="#F4B003"/>
</svg>

<svg xmlns="http://www.w3.org/2000/svg" width="12" height="12" fill="none" xmlns:v="https://vecta.io/nano"><path d="M5.239.842c.24-.737 1.282-.737 1.521 0l.856 2.633a.8.8 0 0 0 .76.552h2.77c.775 0 1.097.992.47 1.448l-2.24 1.627a.8.8 0 0 0-.29.895l.855 2.633c.24.737-.604 1.35-1.232.895L6.47 9.898a.8.8 0 0 0-.94 0l-2.24 1.627c-.627.456-1.47-.158-1.231-.895l.856-2.633a.8.8 0 0 0-.291-.895L.383 5.476C-.242 5.02.08 4.028.855 4.028h2.769a.8.8 0 0 0 .76-.552L5.24.842h-.001z" fill="#f4b003"/></svg>
